X:70
T:Blow, Ye Winds (a)
M:2/4
L:1/16
Q:1/4=3D100
K:F
C4|\
F2F2 F2F2|F2E2 D2C2|F2F2 F2A2|c6     A2|
B2B2 B2B2|A2A2 A2A2|D2G2 G2F2|(F2E2)A2G2|
F3G  F2DD|D6     C2|F3G  A2B2|c8       |
d2B2 c2A2|B2A2 G2F2|A3F  FFG2|F4      ||
